assets/icons/24px/outline/shopping-basket-24px.svg

<svg width="24" height="24" viewBox="0 0 24 24" fill="none" xmlns="http://www.w3.org/2000/svg">
<path d="M3.11915 13.5404C2.83089 11.4265 2.68676 10.3696 3.28451 9.68476C3.88226 8.99997 4.949 8.99997 7.08247 8.99997L16.9175 8.99997C19.051 8.99997 20.1177 8.99997 20.7155 9.68476C21.3132 10.3696 21.1691 11.4265 20.8808 13.5404L20.4718 16.5405C20.2469 18.1891 20.1345 19.0135 19.5694 19.5067C19.0043 20 18.1724 20 16.5084 20H7.49157C5.82764 20 4.99568 20 4.43057 19.5067C3.86547 19.0135 3.75306 18.1891 3.52824 16.5405L3.11915 13.5404Z" stroke="white" stroke-width="2"/>
<path d="M17 9V8C17 6.11439 17 5.17158 16.4142 4.58579C15.8284 4 14.8856 4 13 4L11 4C9.11438 4 8.17157 4 7.58579 4.58579C7 5.17157 7 6.11438 7 8V9" stroke="white" stroke-width="2"/>
</svg>

<svg width="24" height="24" fill="none" xmlns="http://www.w3.org/2000/svg"><path d="M3.12 13.54c-.29-2.113-.433-3.17.165-3.855C3.882 9 4.949 9 7.082 9h9.835c2.134 0 3.2 0 3.798.685.598.685.454 1.742.166 3.855l-.41 3c-.224 1.65-.337 2.474-.902 2.967-.565.493-1.397.493-3.06.493H7.491c-1.664 0-2.496 0-3.061-.493-.566-.494-.678-1.318-.903-2.966l-.409-3z" stroke="#fff" stroke-width="2"/><path d="M17 9V8c0-1.886 0-2.828-.586-3.414C15.828 4 14.886 4 13 4h-2c-1.886 0-2.828 0-3.414.586C7 5.172 7 6.114 7 8v1" stroke="#fff" stroke-width="2"/></svg>
